Obsidian-SemiLight/actions/16s/view-split-left-right.svg

<svg viewBox="0 0 16 16" xmlns="http://www.w3.org/2000/svg"><path d="m2 2v12h5v-12zm6 0v12h6v-12zm-5 3h3v8h-3zm6 0h4v8h-4z" fill="#4d4d4d"/></svg>

<svg xmlns="http://www.w3.org/2000/svg" viewBox="0 0 16 16">
  <defs id="defs3051">
    <style type="text/css" id="current-color-scheme">
      .ColorScheme-Text {
        color:#4d4d4d;
      }
      </style>
  </defs>
 <path style="fill:currentColor;fill-opacity:1;stroke:none" 
       d="M 2 2 L 2 14 L 7 14 L 7 2 L 2 2 z M 8 2 L 8 14 L 14 14 L 14 2 L 8 2 z M 3 5 L 6 5 L 6 13 L 3 13 L 3 5 z M 9 5 L 13 5 L 13 13 L 9 13 L 9 5 z "
     class="ColorScheme-Text"
     />
</svg>
